Adwaita++-Light/panel/22/mintupdate-checking.svg

<svg height="22" width="22" xmlns="http://www.w3.org/2000/svg">
  <path d="m11 3c-2.1481 1.9698-5.7654 3.7049-7 4 0 5.333 2.625 11.111 7 12 4.375-.889 7-6.667 7-12-1.235-.2951-4.852-2.0302-7-4zm.145 3.998v.002h.001c1.309.048 2.501.7374 3.204 1.8184l1.388-.4629-1.57 3.1465-3.147-1.5743 1.278-.4257c-.338-.294-.763-.487-1.229-.504-.742-.027-1.4343.3551-1.8063.9981l-1.7325-1c.7401-1.282 2.1343-2.0531 3.6138-1.9981zm-3.313 3.5 3.147 1.574-1.2778.426c.3378.294.7628.485 1.2288.502.742.027 1.434-.355 1.806-.998l1.733 1c-.74 1.282-2.135 2.053-3.614 1.998-1.3085-.048-2.4997-.737-3.2027-1.818l-1.3886.463z" fill="#444" fill-rule="evenodd"/>
</svg>

<svg xmlns="http://www.w3.org/2000/svg" width="22" height="22" version="1.1">
 <defs>
  <style id="current-color-scheme" type="text/css">
   .ColorScheme-Text { color:#444444; } .ColorScheme-Highlight { color:#4285f4; }
  </style>
 </defs>
 <g>
  <path style="fill:currentColor;fill-rule:evenodd" class="ColorScheme-Text" d="M 11,3 C 8.8519,4.9698 5.2346,6.7049 4,7 4,12.333 6.625,18.111 11,19 15.375,18.111 18,12.333 18,7 16.765,6.7049 13.148,4.9698 11,3 Z m 0.145,3.998 0,0.002 0.001,0 c 1.309,0.048 2.501,0.7374 3.204,1.8184 L 15.738,8.3555 14.168,11.502 11.021,9.9277 12.299,9.502 C 11.961,9.208 11.536,9.015 11.07,8.998 10.328,8.971 9.6357,9.3531 9.2637,9.9961 l -1.7325,-1 C 8.2713,7.7141 9.6655,6.943 11.145,6.998 Z m -3.313,3.5 3.147,1.574 -1.2778,0.426 c 0.3378,0.294 0.7628,0.485 1.2288,0.502 0.742,0.027 1.434,-0.355 1.806,-0.998 l 1.733,1 C 13.729,14.284 12.334,15.055 10.855,15 9.5465,14.952 8.3553,14.263 7.6523,13.182 L 6.2637,13.645 7.832,10.498 Z"/>
 </g>
</svg>
